svg/color/bgg.svg

<?xml version="1.0" encoding="UTF-8" ?>
<!DOCTYPE svg PUBLIC "-//W3C//DTD SVG 1.1//EN" "http://www.w3.org/Graphics/SVG/1.1/DTD/svg11.dtd">
<svg width="250pt" height="250pt" viewBox="0 0 250 250" version="1.1" xmlns="http://www.w3.org/2000/svg">
<g id="#ffffffff">
<path fill="#ffffff" opacity="1.00" d=" M 0.00 0.00 L 250.00 0.00 L 250.00 250.00 L 0.00 250.00 L 0.00 0.00 M 80.73 46.67 C 80.59 57.68 80.67 68.69 80.68 79.71 C 80.67 109.53 80.64 139.35 80.70 169.17 C 80.84 180.27 80.20 191.41 81.06 202.49 C 102.04 202.23 123.02 202.42 144.00 202.38 C 158.90 203.19 174.91 197.14 183.49 184.50 C 193.46 172.03 195.09 154.21 189.30 139.58 C 185.75 130.98 178.87 124.31 171.66 118.68 C 173.94 114.93 176.68 111.42 178.33 107.33 C 180.66 101.52 181.92 95.26 181.64 88.99 C 181.81 74.90 174.05 61.14 162.14 53.72 C 154.43 48.71 145.15 46.39 136.00 46.54 C 117.57 46.67 99.15 46.42 80.73 46.67 Z" />
<path fill="#ffffff" opacity="1.00" d=" M 127.68 80.04 C 131.13 81.42 133.56 84.33 136.10 86.90 C 141.17 92.18 146.47 97.23 151.64 102.40 C 152.66 103.55 154.72 105.44 152.90 106.83 C 146.15 114.09 138.80 120.80 131.90 127.93 C 130.87 128.93 129.59 130.72 131.15 131.88 C 138.54 139.79 146.59 147.08 153.98 155.00 C 149.61 160.04 145.54 165.93 139.44 168.96 C 135.26 164.02 130.47 159.66 125.95 155.05 C 118.76 147.92 111.70 140.65 104.40 133.63 C 103.29 132.52 102.17 131.38 101.39 130.00 C 108.67 121.54 117.42 114.41 124.71 105.96 C 122.80 101.33 117.74 98.99 115.16 94.76 C 115.19 94.39 115.26 93.66 115.30 93.30 C 118.88 88.41 123.94 84.82 127.68 80.04 Z" />
</g>
<g id="#219bf2ff">
<path fill="#219bf2" opacity="1.00" d=" M 80.73 46.67 C 99.15 46.42 117.57 46.67 136.00 46.54 C 145.15 46.39 154.43 48.71 162.14 53.72 C 174.05 61.14 181.81 74.90 181.64 88.99 C 181.92 95.26 180.66 101.52 178.33 107.33 C 176.68 111.42 173.94 114.93 171.66 118.68 C 178.87 124.31 185.75 130.98 189.30 139.58 C 195.09 154.21 193.46 172.03 183.49 184.50 C 174.91 197.14 158.90 203.19 144.00 202.38 C 123.02 202.42 102.04 202.23 81.06 202.49 C 80.20 191.41 80.84 180.27 80.70 169.17 C 93.13 169.41 105.57 169.18 118.00 169.22 C 125.15 169.16 132.30 169.49 139.44 168.96 C 145.54 165.93 149.61 160.04 153.98 155.00 C 146.59 147.08 138.54 139.79 131.15 131.88 C 129.59 130.72 130.87 128.93 131.90 127.93 C 138.80 120.80 146.15 114.09 152.90 106.83 C 154.72 105.44 152.66 103.55 151.64 102.40 C 146.47 97.23 141.17 92.18 136.10 86.90 C 133.56 84.33 131.13 81.42 127.68 80.04 C 121.51 78.98 115.23 79.43 109.00 79.40 C 99.56 79.51 90.11 79.07 80.68 79.71 C 80.67 68.69 80.59 57.68 80.73 46.67 Z" />
</g>
<g id="#0d68b3ff">
<path fill="#0d68b3" opacity="1.00" d=" M 80.68 79.71 C 90.11 79.07 99.56 79.51 109.00 79.40 C 115.23 79.43 121.51 78.98 127.68 80.04 C 123.94 84.82 118.88 88.41 115.30 93.30 C 115.26 93.66 115.19 94.39 115.16 94.76 C 117.74 98.99 122.80 101.33 124.71 105.96 C 117.42 114.41 108.67 121.54 101.39 130.00 C 102.17 131.38 103.29 132.52 104.40 133.63 C 111.70 140.65 118.76 147.92 125.95 155.05 C 130.47 159.66 135.26 164.02 139.44 168.96 C 132.30 169.49 125.15 169.16 118.00 169.22 C 105.57 169.18 93.13 169.41 80.70 169.17 C 80.64 139.35 80.67 109.53 80.68 79.71 Z" />
</g>
</svg>

<?xml version="1.0" encoding="utf-8"?>
<!-- Generator: Adobe Illustrator 26.0.3, SVG Export Plug-In . SVG Version: 6.00 Build 0)  -->
<svg version="1.1" id="Layer_1" xmlns="http://www.w3.org/2000/svg" xmlns:xlink="http://www.w3.org/1999/xlink" x="0px" y="0px"
	 viewBox="0 0 250 250" style="enable-background:new 0 0 250 250;" xml:space="preserve">
<style type="text/css">
	.st0{fill:#FFFFFF;}
	.st1{fill:#219BF2;}
	.st2{fill:#0D68B3;}
</style>
<circle class="st0" cx="125" cy="125.5" r="125"/>
<g id="_x23_ffffffff">
	<path class="st0" d="M127.7,80c3.5,1.4,5.9,4.3,8.4,6.9c5.1,5.3,10.4,10.3,15.5,15.5c1,1.2,3.1,3,1.3,4.4c-6.8,7.3-14.1,14-21,21.1
		c-1,1-2.3,2.8-0.8,4c7.4,7.9,15.4,15.2,22.8,23.1c-4.4,5-8.4,10.9-14.5,14c-4.2-4.9-9-9.3-13.5-13.9c-7.2-7.1-14.2-14.4-21.5-21.4
		c-1.1-1.1-2.2-2.2-3-3.6c7.3-8.5,16-15.6,23.3-24c-1.9-4.6-7-7-9.5-11.2c0-0.4,0.1-1.1,0.1-1.5C118.9,88.4,123.9,84.8,127.7,80z"/>
</g>
<g id="_x23_219bf2ff">
	<path class="st1" d="M80.7,46.7c18.4-0.2,36.8,0,55.3-0.1c9.1-0.2,18.4,2.2,26.1,7.2c11.9,7.4,19.7,21.2,19.5,35.3
		c0.3,6.3-1,12.5-3.3,18.3c-1.7,4.1-4.4,7.6-6.7,11.3c7.2,5.6,14.1,12.3,17.6,20.9c5.8,14.6,4.2,32.4-5.8,44.9
		c-8.6,12.6-24.6,18.7-39.5,17.9c-21,0-42-0.2-62.9,0.1c-0.9-11.1-0.2-22.2-0.4-33.3c12.4,0.2,24.9,0,37.3,0.1
		c7.2-0.1,14.3,0.3,21.4-0.3c6.1-3,10.2-8.9,14.5-14c-7.4-7.9-15.4-15.2-22.8-23.1c-1.6-1.2-0.3-3,0.8-4c6.9-7.1,14.2-13.8,21-21.1
		c1.8-1.4-0.2-3.3-1.3-4.4c-5.2-5.2-10.5-10.2-15.5-15.5c-2.5-2.6-5-5.5-8.4-6.9c-6.2-1.1-12.4-0.6-18.7-0.6
		c-9.4,0.1-18.9-0.3-28.3,0.3C80.7,68.7,80.6,57.7,80.7,46.7z"/>
</g>
<g id="_x23_0d68b3ff">
	<path class="st2" d="M80.7,79.7c9.4-0.6,18.9-0.2,28.3-0.3c6.2,0,12.5-0.4,18.7,0.6c-3.7,4.8-8.8,8.4-12.4,13.3
		c0,0.4-0.1,1.1-0.1,1.5c2.6,4.2,7.6,6.6,9.5,11.2c-7.3,8.5-16,15.6-23.3,24c0.8,1.4,1.9,2.5,3,3.6c7.3,7,14.4,14.3,21.5,21.4
		c4.5,4.6,9.3,9,13.5,13.9c-7.1,0.5-14.3,0.2-21.4,0.3c-12.4,0-24.9,0.2-37.3-0.1C80.6,139.4,80.7,109.5,80.7,79.7z"/>
</g>
</svg>
